X:1
T: Reunion Reel
C: R-110  Bruce A. Randall  1996
M: C|
Z:
R: reel
K: Bm
fe| "Bm"dBAB FBAB| d2de fbaf| "A"ecBc AcBc| "E"e2ef gece|
    "Bm"dBAB FBAB| d2de fbaf| "A"ecBc "Bm"FBAB| "E"c2dc "Bm"B2 :|
|:\
de| "D"fdcd Adfg| a2ba fedf| "A"ecBc Acef| g2gf ecBc|
    "Bm"dBAB FBAB| d2de fbaf| "A"ecBc "Bm"dBAB| "A"cdcA "Bm"B2 :|
%
